packages/icons/src/map.svg

<svg xmlns="http://www.w3.org/2000/svg" width="24" height="24" fill="none" viewBox="0 0 24 24">
  <path fill="#000" d="m20.5 3-.16.03L15 5.1 9 3 3.36 4.9c-.21.07-.36.25-.36.48V20.5c0 .28.22.5.5.5l.16-.03L9 18.9l6 2.1 5.64-1.9c.21-.07.36-.25.36-.48V3.5c0-.28-.22-.5-.5-.5ZM10 5.47l4 1.4v11.66l-4-1.4V5.47Zm-5 .99 3-1.01v11.7l-3 1.16V6.46Zm14 11.08-3 1.01V6.86l3-1.16v11.84Z"/>
</svg>

<svg width="24" height="24" viewBox="0 0 24 24" fill="none" xmlns="http://www.w3.org/2000/svg">
<path d="M20.5 3L20.34 3.03L15 5.1L9 3L3.36 4.9C3.15 4.97 3 5.15 3 5.38V20.5C3 20.78 3.22 21 3.5 21L3.66 20.97L9 18.9L15 21L20.64 19.1C20.85 19.03 21 18.85 21 18.62V3.5C21 3.22 20.78 3 20.5 3ZM10 5.47L14 6.87V18.53L10 17.13V5.47ZM5 6.46L8 5.45V17.15L5 18.31V6.46ZM19 17.54L16 18.55V6.86L19 5.7V17.54Z" fill="black"/>
</svg>
